svg/OSM-icons/amenity #7bffff °373737 !label=enamenities,deEinrichtungen/12074;amenity=hospital;!label=enhospital,deKrankenhaus.svg

<svg xmlns="http://www.w3.org/2000/svg" viewBox="0 0 580 580" enable-background="new 0 0 580 580"><path fill="#111" stroke="#eee" stroke-width="3.408" d="m66.28 1.768c-41.34 0-64.57 21.371-64.57 65.04v450.12c0 40.844 20.895 62.23 62.19 62.23h452.02c41.31 0 62.23-20.315 62.23-62.23v-450.12c0-42.601-20.923-65.04-63.52-65.04-.004 0-448.5-.143-448.35 0z"/><g fill="#fff"><path d="m474.47 105.53c-49.27-49.27-114.78-76.41-184.47-76.41-69.68 0-135.19 27.14-184.47 76.41-49.27 49.27-76.41 114.79-76.41 184.47s27.14 135.19 76.41 184.47c49.27 49.27 114.79 76.41 184.47 76.41 69.68 0 135.19-27.14 184.47-76.41 49.27-49.27 76.41-114.78 76.41-184.47s-27.14-135.19-76.41-184.47m-184.47 420.21c-129.99 0-235.74-105.75-235.74-235.74 0-129.99 105.75-235.74 235.74-235.74 129.99 0 235.74 105.75 235.74 235.74 0 129.99-105.75 235.74-235.74 235.74"/><path d="m471.14 239.08h-130.22v-130.22c0-5.522-4.479-10-10-10h-81.83c-5.523 0-10 4.478-10 10v130.22h-130.22c-5.523 0-10 4.477-10 10v81.84c0 5.522 4.477 10 10 10h130.22v130.22c0 5.522 4.477 10 10 10h81.84c5.521 0 10-4.478 10-10v-130.22h130.22c5.523 0 10-4.478 10-10v-81.83c0-5.523-4.477-10-10-10"/></g></svg>

<?xml version="1.0" encoding="utf-8"?>
<!-- Generator: Adobe Illustrator 15.0.0, SVG Export Plug-In . SVG Version: 6.00 Build 0)  -->
<!DOCTYPE svg PUBLIC "-//W3C//DTD SVG 1.1//EN" "http://www.w3.org/Graphics/SVG/1.1/DTD/svg11.dtd">
<svg version="1.1" xmlns="http://www.w3.org/2000/svg" xmlns:xlink="http://www.w3.org/1999/xlink" x="0px" y="0px" width="580px"
	 height="580px" viewBox="0 0 580 580" enable-background="new 0 0 580 580" xml:space="preserve">
<g id="Layer_2">
	<g id="g1327">
		<path id="path1329" fill="#111111" stroke="#EEEEEE" stroke-width="3.408" d="M66.275,1.768
			c-41.335,0-64.571,21.371-64.571,65.036v450.123c0,40.844,20.895,62.229,62.192,62.229H515.92
			c41.307,0,62.229-20.315,62.229-62.229V66.804c0-42.601-20.923-65.036-63.521-65.036C514.624,1.768,66.133,1.625,66.275,1.768z"/>
	</g>
</g>
<g id="Layer_4">
	<g>
		<path fill="#FFFFFF" d="M474.469,105.532C425.195,56.26,359.684,29.124,290,29.124c-69.683,0-135.195,27.136-184.468,76.408
			C56.26,154.806,29.124,220.317,29.124,290s27.136,135.194,76.409,184.468C154.806,523.74,220.318,550.876,290,550.876
			c69.683,0,135.195-27.136,184.468-76.408C523.74,425.194,550.877,359.683,550.877,290S523.74,154.806,474.469,105.532z
			 M290,525.739C160.013,525.739,54.261,419.987,54.261,290C54.261,160.014,160.013,54.262,290,54.262
			c129.988,0,235.74,105.752,235.74,235.738C525.74,419.987,419.988,525.739,290,525.739z"/>
		<path fill="#FFFFFF" d="M471.137,239.083H340.918v-130.22c0-5.522-4.479-10-10-10h-81.835c-5.523,0-10,4.478-10,10v130.22H108.864
			c-5.523,0-10,4.477-10,10v81.835c0,5.522,4.477,10,10,10h130.219v130.219c0,5.522,4.477,10,10,10h81.835c5.521,0,10-4.478,10-10
			V340.918h130.219c5.523,0,10-4.478,10-10v-81.835C481.137,243.56,476.66,239.083,471.137,239.083z"/>
	</g>
</g>
</svg>
